X:1
T:[ID 4-31r]
T:[ID 4-31r]
T:Bezeichnung standardisiert: Contratanz de Erbprinz; Engl. Conter Tantz de Erb Printz [mit Trio] In dieser Quelle auch als: Engl. Conter Tantz  Erb Printz.
T:Urheber unbekannt Datum in der hier transkribierten schriftlichen Quelle: 1792
C:Urheber unbekannt
C:Datum in der hier transkribierten schriftlichen Quelle: 1792
L:1/8
M:2/4
K:G
V:1 treble 
V:1
 d/c/B/A/ GB | B2 Ac | c2 Bd | d2 B2 | ecBA | A2 G2 | FDE^C | D2 D2 :: gdBG | gdBG | GABc | B2 g2 | %12
 B2 d2 | G2 A2 | BGAF | G2 G2 :: D2 E2 | DGFE | D2 E2 | DGFE | D2 E2 | DEFG | ABcA | B2 A2 :: %24
 d2 d2 | dAFD | c2 c2 | cAFD | GABc | d2 g2 | B2 d2 | G2 A2 | BGAF | G2 G2 :| %34

